X:1
T:Dove vai miser
T:Giovanni Croce Ghiozotto
T:Source : Canzonette a 3 voci---Libro primo---Venetia---G.Vincenti---1601. Editor : André Vierendeels (11/02/15).
T:Dove vai miser (prima parte)
C:Giovanni Croce Ghiozotto
%%score [ 1 2 3 ]
L:1/8
Q:1/4=120
M:4/4
K:C
V:1 treble-8 nm="Tenor 1" snm="T 1"
V:2 treble-8 nm="Tenor 2" snm="T 2"
V:3 bass nm="Basso" snm="B"
V:1
 A2 B2 c4 | c2 B2 A4 | A2 A4 B2 | c4 c2 c2 | c4 d4 | B4 c4- | c4 B4 | A8 | B8 | A2 B2 c4 | %10
w: 1)Do- ve vai|mi- ser co-|re, co- si|pie- na d'af-|fan- ni|e di|_ do-|lo-|re,|Do- ve vai|
w: 2)Mi- ser che|li di- ra-|i, di tan-|ti tuoi mar-|tir tor-|men- ti|_ e|gua-|i?|Mi- ser che|
w: 3)E se la|ca- gion po-|i, sa- per|vor- ra, de|li em-|pi do-|* lor|tuo-|i?|E se la|
w: 4)E se'i ti|chia- ma'e vuo-|le, che tu|pur re- sti|pri- vo|del su-|* o|So-|le?|E se'i ti|
 c2 B2 A4 | A2 A4 B2 | c4 c2 c2 | c4 d4 | B4 c4- | c4 B4 | A8 |[M:2/4] B4 |] %18
w: mi- ser co-|re, co- si|pie- no d'af-|fan- ni|e di|_ do-|lo-|re.|
w: li di- ra-|i, di tan-|ti tuoi mar-|tir tor-|men ti|_ e|gua-|i?|
w: ca- gion po-|i, sa- per|vor- ra, de|li em-|pi do|_ lor|tuo-|i?|
w: chia- ma'e vuo-|le, che ti|pur re- sti|pri- vo|nel su-|* o|So-|le?|
V:2
 ^F2 G2 A4 | A2 G2 ^F4 | ^F2 F4 G2 | A4 A2 A2 | A4 A4 | G4 A4- | A4 G4- | G4 ^F4 | G8 | F2 G2 A4 | %10
w: 1)Do- ve vai|mi- ser co-|re, co- si|pie- na d'af-|fan- ni|e di|_ do-|* lo-|re,|Do- ve vai|
w: 2)Mi- ser che|li di- ra-|* * tan-|ti tuoi mar-|tir tor-|men- ti|_ e|_ guai-|i?|Mi- ser che|
w: 3)E se la|ca- gion po-|* * per|vor- rai, de|li em-|pi do-|* lor|_ tuo-|i?|E se la|
w: 4)E se'i ti|chia- ma'e vuo-|* * tu|pur re- sti|pri- vo|del su-|* o|_ So-|le?|E se'i ti|
 A2 G2 ^F4 | ^F2 F4 G2 | A4 A2 A2 | A4 A4 | G4 A4- | A4 G4- | G4 ^F4 |[M:2/4] G4 |] %18
w: mi- ser co-|re, c- si|pie- no d'af-|fan- ni|e di|_ do-|* lo-|re.|
w: li di- ra-|i, di tan-|ti duoi mar-|tir tor-|men- ti|_ e|_ gua-|i?|
w: ca- gion po-|i, sa- per|vor- ra, de|li em-|pi do-|* lor|_ tuo-|i?|
w: chia- ma'e vuo-|le, che ti|pur re- sti|pri- vo|nel su-|* o|_ So-|le?|
V:3
 D,2 G,2 F,4 | F,2 G,2 D,4 | D,2 D,4 G,2 | F,4 F,2 F,2 | F,4 D,4 | E,4 C,4 | D,8- | D,8 | G,,8 | %9
w: 1)Do- ve vai|mi- ser co-|re, co- si|pie- na d'af-|fan- ni'e|di do-|lo-||re,|
w: 2)Mi- ser che|li di- ra-|i, di tan-|ti tuoi mar-|tir tor-|men- ti'e|gua-||i?|
w: 3)E se la|ca- gion po-|i, sa- per|vor- rai, de|li em-|pi do-|lor|tuo-|i?|
w: 4)E se'i ti|chia- ma'e vuo-|le, che tu|pur re- sti|pri- vo|del suo|So-||le?|
 D,2 G,2 F,4 | F,2 G,2 D,4 | D,2 D,4 G,2 | F,4 F,2 F,2 | F,4 D,4 | E,4 C,4 | D,8- | D,8 | %17
w: Do- ve vai|mi- ser co-|re, co- si|pie- no d'af-|fan- ni'e|di do-|lo-||
w: Mi- ser che|li di- ra-|i, di tan-|ti tuoi mar-|tir tor-|men- ti'e|gua-||
w: E se la|ca- gion po-|i, sa- per|vor- ra, de|li em-|pi do-|mor|tuo-|
w: E se'i ti|chia- ma'e vuo-|le, che ti|pur re- sti|pri- vo|nel suo|So-||
[M:2/4] G,,4 |] %18
w: re.|
w: i?|
w: i?|
w: le?|

